X:1
T: Kingussie Flower
T: 2nd Setting
C:
R:Reel
Q: 232
K:C
M:4/4
L:1/8
|:ED|C2 c2 cB ce|d2 A2 A3c|G2 c2 dc de|g2 e2 e3g|
a2 bc' g2 fe|fe dc d2 e2|G3c ed cd|e2 c2 c2 a2|
g2 e2 c'3e|fe dc d2 e2|g2 e2 c'2 ef|g2 c'2 c'3g|
a2 bc' g3e|fe dc d2 e2|G3c ed cd|e2 c2 c2:|
a2|g2 e2 c'3e|fe dc d2 e2|g2 e2 c'2 ef|g2 c'2 c'3g|
a2 bc' g3e|fe dc d2 e2|G3c ed cd|e2 c2 c2||
